X:1
T:Samsons Anden Historie
T:Samsons Anden Historie
T:Ole Andersen Mærli, Sørum
C:Ole Andersen Mærli, Sørum
L:1/8
M:6/8
K:G
V:1 treble nm="Piano" snm="Pno."
V:1
"B7" F>GA"Em" B>cB |"B7" A>FG"Em" F E2 |"B7" F>GA"Em" B>cB |"B7" A>FF"Em" E3 |"B7" F>GA"Em" B>cB | %5
w: Sam- son af Hæn- del- se,|Ga- za be- søg- te,|fandt der en Ho- re, til|hvil- ken han gaar.|Da de Ga- si- der fik|
"B7" A>FG"Em" F E2 |"B7" F>GA"Em" B>cB |"B7" A>FF"Em" E3 |"Bm" d>^cB"F#" ^A>Bc | %9
w: hø- re det Ryg- te,|Kom- me de sam- men som|Ul- ven om Faar,|La- der med Krigs- fol- ket|
"Bm" d>^cB"F#" ^A"Bm" B2 |"Em" B>AG"B7" FGA | B>FG"Em" F E2 |] %12
w: Sta- den om- rin- ge,|Men- te, de han- em ret|vis- se- lig fin- ge.|

